build/assets/fonts/c1a0e47dde0e275f4284a1e5b07a9219.svg

<svg width="100" height="60" viewBox="0 0 100 60" version="1.1" xmlns="http://www.w3.org/2000/svg" xmlns:xlink="http://www.w3.org/1999/xlink"><title>Switch-light</title><desc>Created with Sketch.</desc><g id="Light-Payment-badges" stroke="none" stroke-width="1" fill="none" fill-rule="evenodd" transform="translate(-610.000000, -689.000000)"><g id="Switch-light" transform="translate(610.000000, 689.000000)"><rect id="Rectangle" fill="#FFF" x="0" y="0" width="100" height="60" rx="4"/><path d="M33.4759581,26.0394972 C33.4759581,17.160792 40.8068192,9.9618663 49.8512207,9.9618663 C58.8947019,9.9618663 66.2264832,17.160792 66.2264832,26.0394972 C66.2264832,34.9200096 58.8947019,42.1171282 49.8512207,42.1171282 C40.8068192,42.1171282 33.4759581,34.9200096 33.4759581,26.0394972 L33.4759581,26.0394972 Z M49.8512207,40.9930584 C58.261557,40.9930584 65.0789081,34.297434 65.0789081,26.0394972 C65.0789081,17.7815605 58.261557,11.0877432 49.8512207,11.0877432 C41.4399641,11.0877432 34.622613,17.7815605 34.622613,26.0394972 C34.622613,34.297434 41.4399641,40.9930584 49.8512207,40.9930584 L49.8512207,40.9930584 Z" id="Fill-3" fill="#129566"/><path d="M54.3660593,22.6599458 C56.9667388,26.5276947 55.837569,31.7058042 51.8472836,34.2230522 C47.8569982,36.7420842 42.5157583,35.6502658 39.9169193,31.7825169 L42.3933625,30.1688735 C44.0820557,32.6798775 47.5505487,33.3908082 50.1420256,31.7548646 C52.7325822,30.118921 53.4660364,26.7560489 51.7782635,24.245937 L54.3660593,22.6599458" id="Fill-1" fill="#129566"/><path d="M60.1333837,19.111536 C57.529023,15.2455711 52.1850223,14.1599967 48.1993382,16.6825968 C44.2118136,19.2069809 43.0909263,24.3868743 45.6952869,28.2510552 L48.2159031,26.7025284 C46.5262896,24.1933085 47.2542222,20.8313284 49.8429382,19.1918167 C52.4316543,17.5523051 55.9001473,18.2596678 57.5934419,20.7679958 L60.1333837,19.111536" id="Fill-2" fill="#000"/><polyline id="h-2" fill="#129566" points="59.068774 45.472067 59.8808222 45.472067 59.5420251 47.4309167 61.7470354 47.4309167 62.0858326 45.472067 62.8977143 45.472067 62.0830037 50.1843336 61.2711219 50.1843336 61.614412 48.1984822 59.4094016 48.1984822 59.0661116 50.1843336 58.2542298 50.1843336 59.068774 45.472067"/><path d="M53.5594151,47.922423 L53.5617447,47.9090165 C53.7933781,46.5693174 54.9666879,45.472067 56.3663062,45.472067 C57.2179584,45.472067 57.6803932,45.7749391 58.0483109,46.2058332 L57.420804,46.818375 C57.1116267,46.4682971 56.7563556,46.2328349 56.2281915,46.2328349 C55.3500812,46.2328349 54.5751409,46.9732098 54.4157265,47.8956101 L54.4133969,47.9090165 C54.2539825,48.831228 54.7651735,49.5785894 55.6497735,49.5785894 C56.2175416,49.5785894 56.6202377,49.3495471 57.0815077,48.9726564 L57.5098298,49.5111796 C56.9395656,50.0227011 56.35549,50.345966 55.490692,50.345966 C54.1439899,50.345966 53.325452,49.2755285 53.5594151,47.922423" id="c-3" fill="#129566"/><polyline id="t-3" fill="#129566" points="51.4344083 46.2394437 49.9687279 46.2394437 50.1015178 45.472067 53.8512501 45.472067 53.7186266 46.2394437 52.2529462 46.2394437 51.5710255 50.1843336 50.7524875 50.1843336 51.4344083 46.2394437"/><polyline id="i-2" fill="#129566" points="48.4159859 45.472067 49.2280341 45.472067 48.4134899 50.1843336 47.6014417 50.1843336 48.4159859 45.472067"/><polyline id="w-2" fill="#129566" points="40.4995829 45.4854735 41.3776932 45.4854735 41.8762375 48.9792652 43.617981 45.472067 44.3043947 45.472067 44.8337237 48.9792652 46.5401897 45.4854735 47.3918418 45.4854735 44.9671791 50.2313505 44.2607971 50.2313505 43.7106677 46.8451878 41.9897246 50.2313505 41.2899987 50.2313505 40.4995829 45.4854735"/><path d="M35.7650104,49.565183 L36.3559086,48.9726564 C36.7306488,49.3631424 37.1411658,49.585387 37.7089339,49.585387 C38.2106399,49.585387 38.5694055,49.3429383 38.6298099,48.9928605 L38.6323059,48.9794541 C38.6903807,48.6427827 38.5371232,48.4609461 37.7137596,48.2590944 C36.7719169,48.0166456 36.2687132,47.7205712 36.418809,46.8521743 L36.4211387,46.8387678 C36.5607511,46.0307943 37.3175533,45.472067 38.2351012,45.472067 C38.9085354,45.472067 39.4070798,45.6807164 39.8096094,46.0645936 L39.265637,46.6905418 C38.9043754,46.3742633 38.5176541,46.2058332 38.095156,46.2058332 C37.6197418,46.2058332 37.2994154,46.4548907 37.2459999,46.7647492 L37.2436703,46.7779668 C37.1807698,47.1416399 37.3641463,47.3032724 38.2179617,47.5185306 C39.1531483,47.7609793 39.5932851,48.1176659 39.458332,48.8986378 L39.4558359,48.9120443 C39.3034105,49.7940364 38.5327968,50.3189643 37.5623326,50.3189643 C36.8559505,50.3189643 36.2322709,50.0699068 35.7650104,49.565183" id="s-3" fill="#129566"/></g></g></svg>

<svg width="100" height="60" xmlns="http://www.w3.org/2000/svg"><g fill="none" fill-rule="evenodd"><rect fill="#FFF" width="100" height="60" rx="4"/><path d="M33.476 26.04c0-8.88 7.33-16.078 16.375-16.078 9.044 0 16.375 7.199 16.375 16.077 0 8.881-7.331 16.078-16.375 16.078S33.476 34.92 33.476 26.04zm16.375 14.953c8.41 0 15.228-6.696 15.228-14.954 0-8.257-6.817-14.951-15.228-14.951s-15.228 6.694-15.228 14.951c0 8.258 6.817 14.954 15.228 14.954z" fill="#129566"/><path d="M54.366 22.66c2.6 3.868 1.472 9.046-2.519 11.563-3.99 2.52-9.331 1.427-11.93-2.44l2.476-1.614c1.69 2.51 5.158 3.222 7.749 1.586 2.59-1.636 3.324-4.999 1.636-7.51l2.588-1.585" fill="#129566"/><path d="M60.133 19.112c-2.604-3.866-7.948-4.952-11.934-2.43-3.987 2.525-5.108 7.705-2.504 11.57l2.52-1.55c-1.689-2.509-.96-5.87 1.628-7.51 2.589-1.64 6.057-.932 7.75 1.576l2.54-1.656" fill="#000"/><path fill="#129566" d="M59.069 45.472h.812l-.339 1.959h2.205l.339-1.959h.812l-.815 4.712h-.812l.343-1.986H59.41l-.343 1.986h-.812l.815-4.712m-5.51 2.45l.002-.013c.231-1.34 1.405-2.437 2.804-2.437.852 0 1.314.303 1.682.734l-.627.612c-.31-.35-.665-.585-1.193-.585-.878 0-1.653.74-1.812 1.663l-.003.013c-.159.922.352 1.67 1.237 1.67.568 0 .97-.23 1.432-.606l.428.538c-.57.512-1.155.835-2.02.835-1.346 0-2.165-1.07-1.93-2.424m-2.126-1.682H49.97l.133-.768h3.75l-.133.767h-1.466l-.682 3.945h-.819l.682-3.945m-3.019-.767h.812l-.815 4.712h-.812l.815-4.712m-7.916.013h.878l.498 3.494 1.742-3.507h.686l.53 3.507 1.706-3.494h.852l-2.425 4.746h-.706l-.55-3.386-1.721 3.386h-.7l-.79-4.746m-4.735 4.08l.59-.592c.376.39.786.612 1.354.612.502 0 .86-.242.92-.592l.003-.014c.058-.336-.095-.518-.918-.72-.942-.242-1.445-.538-1.295-1.407l.002-.013c.14-.808.897-1.367 1.814-1.367.674 0 1.172.209 1.575.593l-.544.626c-.362-.317-.748-.485-1.17-.485-.476 0-.797.249-.85.559l-.002.013c-.063.364.12.525.974.74.935.243 1.375.6 1.24 1.38l-.002.014c-.153.882-.923 1.407-1.894 1.407-.706 0-1.33-.25-1.797-.754"/></g></svg>
